src/section/form/fb.svg

<svg width="20" height="36" viewBox="0 0 20 36" fill="none" xmlns="http://www.w3.org/2000/svg">
<path d="M19.9859 0.19246V5.91072H16.4045C15.0843 5.91072 14.1433 6.08938 13.764 6.65296C13.3848 7.20279 13.0056 7.94505 13.0056 9.05846V13.1135H19.7894L18.8483 19.574H13.0056V36H5.84266V19.574H0V13.2922H5.84266V8.49492C5.84266 5.73203 6.60109 3.69766 8.30053 2.21312C9.99997 0.728586 12.0786 0 14.7191 0C16.9803 0 18.6798 6.71832e-06 20 0.178701L19.9859 0.19246Z" fill="#CA485D"/>
</svg>

<?xml version="1.0" encoding="utf-8"?>
<!-- Generator: Adobe Illustrator 27.6.1, SVG Export Plug-In . SVG Version: 6.00 Build 0)  -->
<svg version="1.1" id="圖層_1" xmlns="http://www.w3.org/2000/svg" xmlns:xlink="http://www.w3.org/1999/xlink" x="0px" y="0px"
	 viewBox="0 0 20 36" style="enable-background:new 0 0 20 36;" xml:space="preserve">
<style type="text/css">
	.st0{fill:#005D43;}
</style>
<path class="st0" d="M20,0.2v5.7h-3.6c-1.3,0-2.3,0.2-2.6,0.7C13.4,7.2,13,7.9,13,9.1v4.1h6.8l-0.9,6.5H13V36H5.8V19.6H0v-6.3h5.8
	V8.5c0-2.8,0.8-4.8,2.5-6.3C10,0.7,12.1,0,14.7,0C17,0,18.7,0,20,0.2L20,0.2z"/>
</svg>
